X:1
T:O felice chi t'ama
T:Giovanni Matteo Asola
T:Source : Madrigali a due voci---Venetia---G.Vincenti---1587. Editor : André Vierendeels (16/11/17). Notes : Original clef : C4 (Fuga di mezo tempo, una quinta piu alto) Original note values have been halved Editorial accidentals above the staff See also : Prima parte "Pensier doglioso" (Asola)
T:O felice chi t'ama
T:Seconda parte
T:©
T:©
C:Giovanni Matteo Asola
Z:©
%%score [ 1 2 ]
L:1/8
Q:1/4=120
M:2/2
K:F
V:1 treble nm="Soprano" snm="S"
V:2 treble-8 nm="Tenor" snm="T"
V:1
 z4 A4- | A2 A2 G4 | F2 F2 E3 F | G4 D4 | z2 F2 E2 F2 | G>F E2 D2 z E | FF G2 A2 F2 | E2 A2 G2 E2 | %8
w: O|_ fe- li-|ce chi t'a- *|* ma,|dol- ce mia|vi- * * ta, dol-|ce mia vi- ta ve-|ra, poi che per|
 F2 G2 AABB | A2 D2 z2 F2- | F2 F2 A4 | G2 A2 B2 AG | A2 A2 G2 G2 | F4 E2 A2 | G2 E2 F2 G2 | %15
w: te gli'e gra- t'o- gni tor-|men- to, e|_ gli'ac- cre-|sce'o- gni pe- * *|* na'il suo con-|ten- to, e|o- gn'o- pra del|
 A2 F2 E3 F | G2 E2 D3 E | F4 E4 | G4 F2 F2 | E4 D4 | z2 F2 E2 C2 | D2 E2 F2 ED | E4 D2 G2 | %23
w: ne- mi- co'a- *|stut' e for- *|* te,|pa- ce gli'ap-|por- ta,|in dar- li'af-|fan- n'e mor- * *|* te, in|
 F2 D2 F2 F2 | E4 D2 E2 | F2 G2 A2 G2- | G2 F2 E4 | D2 G2 F2 D2 | F2 F2 E4 | D3 E FG A2- | %30
w: dar- li'af- fan- n'e|mor- te, in|dar- li'af- fan- *|* n'e mor-|te, in dar- li'af-|fan- n'e mor-|te, in dar- li'af- fan-|
 A2 G2 F3 E/D/ | G8 |] %32
w: * n'e mor- * *|te.|
V:2
 d6 d2 | c4 B2 B2 | A3 B c4 | G4 z2 B2 | A2 B2 c>B A2 | G2 z A BB c2 | d2 B2 A2 d2 | c2 A2 B2 c2 | %8
w: O fe-|li- ce chi|t'a- * *|ma, dol-|ce mia vi- * *|ta, dol- ce mia vi-|ta ve- ra, poi|che per te gli'è|
 dd_ee d2 G2 | z2 B4 B2 | d4 c2 d2 | _e2 dc d2 d2 | c2 c2 B4 | A2 d2 c2 A2 | B2 c2 d2 B2 | %15
w: gra- t'o- gni tor- men- to,|e gli'ac-|cre- sce'o- gni|pe- * * * na'il|suo con- ten-|to, e o- gn'o-|pra del ne- mi-|
 A3 B c2 A2 | G3 A B4 | A4 c4 | B2 B2 A4 | G4 z2 B2 | A2 F2 G2 A2 | B2 AG A4 | G2 c2 B2 G2 | %23
w: co'a- * stut' e|for- * *|te, pa-|ce gli'ap- por-|ta, in|dar- li'af- fan- n'e|mor- * * *|te, in dar- li'af-|
 B2 B2 A4 | G2 A2 B2 c2 | d2 c4 B2 | A4 G2 c2 |"^#" B2 G2 B2 B2 | A4 G3 A | Bc d4 c2 | B3 A/G/ A4 | %31
w: fan- n'e mor-|te, in dar- li'af-|fan- * n'e|mor- te, in|dar- li'af- fan- n'e|mor- * *|||
 G8 |] %32
w: te.|

